src/assets/imgs/icons/wallet/ic_leasing_cancel.svg

<?xml version="1.0" encoding="UTF-8"?>
<svg width="32px" height="32px" viewBox="0 0 32 32" version="1.1" xmlns="http://www.w3.org/2000/svg" xmlns:xlink="http://www.w3.org/1999/xlink">
    <!-- Generator: Sketch 52.5 (67469) - http://www.bohemiancoding.com/sketch -->
    <title>ic_leasing_cancel</title>
    <desc>Created with Sketch.</desc>
    <g id="Export" stroke="none" stroke-width="1" fill="none" fill-rule="evenodd">
        <g id="ic_leasing_cancel">
            <circle id="Oval-2" fill="#FF94A0" cx="16" cy="16" r="16"></circle>
            <path d="M9.99632382,22.7085241 L7.854,24.8511 C7.756,24.9481 7.628,24.9971 7.5,24.9971 C7.372,24.9971 7.244,24.9481 7.146,24.8511 C6.951,24.6551 6.951,24.3391 7.146,24.1431 L9.28917067,21.9999293 C8.47060482,21.0828427 7.83196393,19.9886515 7.43790071,18.7645637 C6.2417764,15.0490147 7.57187575,10.9841623 10.7310214,8.70061661 C10.8371188,8.61937308 10.9717505,8.58516659 11.1036441,8.60594264 C11.2355377,8.6267187 11.3532141,8.70066911 11.4293394,8.81061661 C11.5868395,9.03548633 11.5383172,9.34500856 11.3196037,9.51061661 C8.51881884,11.5455869 7.34468494,15.1575339 8.41176663,18.4558941 C8.7558688,19.5195173 9.30776383,20.4724382 10.0136499,21.2754501 L15.5003,15.7888 L15.5003,7.71551371 L13.8563,9.40110065 C13.6613,9.59721654 13.3453,9.59921772 13.1483,9.4071042 C12.9523,9.21298949 12.9503,8.89580206 13.1433,8.69868559 L15.6433,6.14258425 C15.8323,5.95247192 16.1683,5.95247192 16.3563,6.14258425 L18.8563,8.69868559 C19.0493,8.89580206 19.0473,9.21298949 18.8513,9.4071042 C18.7533,9.50216037 18.6263,9.55018875 18.5003,9.55018875 C18.3703,9.55018875 18.2413,9.50015918 18.1433,9.40110065 L16.5003,7.71551371 L16.5003,14.7888 L21.2923149,9.99678515 C21.0999717,9.82631113 20.898126,9.66398517 20.6870407,9.51061661 C20.5796532,9.43255317 20.5077094,9.31482617 20.4871167,9.18346604 C20.466524,9.05210591 20.4989788,8.91793391 20.577305,8.81061661 C20.7425151,8.59137636 21.0512936,8.54273715 21.275623,8.70061661 C21.5301109,8.8845611 21.7727249,9.08005936 22.0031023,9.28599769 L24.143,7.1461 C24.338,6.9511 24.655,6.9511 24.85,7.1461 C25.045,7.3421 25.045,7.6581 24.85,7.8531 L22.710376,9.9929758 C24.8164364,12.347205 25.5677017,15.6914251 24.5612197,18.7884443 C23.3519426,22.5094789 19.8824299,25.0206777 15.9783823,25.0006166 C13.7159852,24.9996017 11.6038424,24.1493201 9.99632382,22.7085241 Z M10.72033,21.9844327 C12.1454071,23.2454705 14.0089103,23.988037 16.0033222,23.988037 C19.4624583,23.988037 22.5277961,21.7542542 23.5948777,18.4558941 C24.4763455,15.7312685 23.8284834,12.7926618 21.9977043,10.7057313 L16.3881535,16.3159422 C16.3667291,16.3422197 16.3426841,16.3662648 16.3164177,16.3876865 L10.72033,21.9844327 Z" id="Shape" fill="#FFFFFF"></path>
        </g>
    </g>
</svg>

<?xml version="1.0" encoding="utf-8"?>
<!-- Generator: Adobe Illustrator 23.0.1, SVG Export Plug-In . SVG Version: 6.00 Build 0)  -->
<svg version="1.1" id="图层_1" xmlns="http://www.w3.org/2000/svg" xmlns:xlink="http://www.w3.org/1999/xlink" x="0px" y="0px"
	 viewBox="0 0 32 32" style="enable-background:new 0 0 32 32;" xml:space="preserve">
<style type="text/css">
	.st0{fill-rule:evenodd;clip-rule:evenodd;fill:#FF676B;}
	.st1{fill-rule:evenodd;clip-rule:evenodd;fill:#FFFFFF;}
</style>
<title>ic_leasing_cancel</title>
<desc>Created with Sketch.</desc>
<circle id="Oval-2" class="st0" cx="16" cy="16" r="16"/>
<path id="Shape" class="st1" d="M10,22.7l-2.1,2.1C7.8,24.9,7.6,25,7.5,25s-0.3,0-0.4-0.1c-0.2-0.2-0.2-0.5,0-0.7L9.3,22
	c-0.8-0.9-1.5-2-1.9-3.2C6.2,15,7.6,11,10.7,8.7c0.1-0.1,0.2-0.1,0.4-0.1c0.1,0,0.2,0.1,0.3,0.2c0.2,0.2,0.1,0.5-0.1,0.7
	c-2.8,2-4,5.6-2.9,8.9c0.3,1.1,0.9,2,1.6,2.8l5.5-5.5V7.7l-1.6,1.7c-0.2,0.2-0.5,0.2-0.7,0c-0.2-0.2-0.2-0.5,0-0.7l2.5-2.6
	c0.2-0.2,0.5-0.2,0.7,0l2.5,2.6c0.2,0.2,0.2,0.5,0,0.7c-0.1,0.1-0.2,0.1-0.4,0.1c-0.1,0-0.3-0.1-0.4-0.1l-1.6-1.7v7.1l4.8-4.8
	c-0.2-0.2-0.4-0.3-0.6-0.5c-0.1-0.1-0.2-0.2-0.2-0.3c0-0.1,0-0.3,0.1-0.4c0.2-0.2,0.5-0.3,0.7-0.1c0.3,0.2,0.5,0.4,0.7,0.6l2.1-2.1
	c0.2-0.2,0.5-0.2,0.7,0c0.2,0.2,0.2,0.5,0,0.7L22.7,10c2.1,2.4,2.9,5.7,1.9,8.8C23.4,22.5,19.9,25,16,25C13.7,25,11.6,24.1,10,22.7z
	 M10.7,22c1.4,1.3,3.3,2,5.3,2c3.5,0,6.5-2.2,7.6-5.5c0.9-2.7,0.2-5.7-1.6-7.8l-5.6,5.6c0,0,0,0.1-0.1,0.1L10.7,22z"/>
</svg>
